flaticon/design/background.svg

<svg xmlns="http://www.w3.org/2000/svg" width="32" height="32" viewBox="0 0 24 24">
    <path d="M9.871094 5.601562C10.089844 5.601562 10.269531 5.421875 10.269531 5.199219 10.269531 4.980469 10.089844 4.800781 9.871094 4.800781L9.082031 4.800781C8.859375 4.800781 8.679688 4.980469 8.679688 5.199219 8.679688 5.421875 8.859375 5.601562 9.082031 5.601562zM12.234375 5.601562C12.457031 5.601562 12.636719 5.421875 12.636719 5.199219 12.636719 4.980469 12.457031 4.800781 12.234375 4.800781L11.445312 4.800781C11.226562 4.800781 11.046875 4.980469 11.046875 5.199219 11.046875 5.421875 11.226562 5.601562 11.445312 5.601562zM14.601562 5.601562C14.820312 5.601562 15 5.421875 15 5.199219 15 4.980469 14.820312 4.800781 14.601562 4.800781L13.8125 4.800781C13.589844 4.800781 13.410156 4.980469 13.410156 5.199219 13.410156 5.421875 13.589844 5.601562 13.8125 5.601562zM10.246094 23.199219L9.460938 23.199219C9.238281 23.199219 9.058594 23.378906 9.058594 23.601562 9.058594 23.820312 9.238281 24 9.460938 24L10.246094 24C10.46875 24 10.648438 23.820312 10.648438 23.601562 10.648438 23.378906 10.46875 23.199219 10.246094 23.199219zM12.613281 23.199219L11.824219 23.199219C11.605469 23.199219 11.425781 23.378906 11.425781 23.601562 11.425781 23.820312 11.605469 24 11.824219 24L12.613281 24C12.835938 24 13.011719 23.820312 13.011719 23.601562 13.011719 23.378906 12.835938 23.199219 12.613281 23.199219zM14.980469 23.199219L14.191406 23.199219C13.96875 23.199219 13.789062 23.378906 13.789062 23.601562 13.789062 23.820312 13.96875 24 14.191406 24L14.980469 24C15.199219 24 15.378906 23.820312 15.378906 23.601562 15.378906 23.378906 15.199219 23.199219 14.980469 23.199219zM17.34375 23.199219L16.554688 23.199219C16.335938 23.199219 16.15625 23.378906 16.15625 23.601562 16.15625 23.820312 16.335938 24 16.554688 24L17.34375 24C17.566406 24 17.746094 23.820312 17.746094 23.601562 17.746094 23.378906 17.566406 23.199219 17.34375 23.199219zM16.964844 5.601562C17.1875 5.601562 17.367188 5.421875 17.367188 5.199219 17.367188 4.980469 17.1875 4.800781 16.964844 4.800781L16.175781 4.800781C15.957031 4.800781 15.777344 4.980469 15.777344 5.199219 15.777344 5.421875 15.957031 5.601562 16.175781 5.601562zM5.636719 22.367188C5.582031 22.152344 5.363281 22.027344 5.148438 22.082031 4.9375 22.140625 4.808594 22.359375 4.863281 22.574219 4.949219 22.894531 5.121094 23.1875 5.355469 23.425781 5.433594 23.507812 5.535156 23.546875 5.640625 23.546875 5.742188 23.546875 5.84375 23.507812 5.921875 23.429688 6.078125 23.277344 6.078125 23.023438 5.925781 22.867188 5.785156 22.726562 5.6875 22.554688 5.636719 22.367188zM5.0625 5.75C4.894531 6.039062 4.804688 6.367188 4.800781 6.699219 4.796875 6.917969 4.972656 7.101562 5.195312 7.105469 5.195312 7.105469 5.199219 7.105469 5.199219 7.105469 5.417969 7.105469 5.597656 6.929688 5.601562 6.710938 5.601562 6.515625 5.65625 6.324219 5.753906 6.15625 5.863281 5.964844 5.800781 5.71875 5.609375 5.609375 5.421875 5.496094 5.175781 5.558594 5.0625 5.75zM5.0625 5.75"/>
    <path d="M 19.332031 5.601562 C 19.554688 5.601562 19.730469 5.421875 19.730469 5.199219 C 19.730469 4.980469 19.554688 4.800781 19.332031 4.800781 L 19.199219 4.800781 L 19.199219 1.925781 C 19.199219 0.863281 18.335938 0 17.277344 0 L 1.925781 0 C 0.863281 0 0 0.863281 0 1.925781 L 0 17.277344 C 0 18.335938 0.863281 19.199219 1.925781 19.199219 L 5.199219 19.199219 C 5.421875 19.199219 5.601562 19.019531 5.601562 18.800781 C 5.601562 18.753906 5.589844 18.707031 5.574219 18.664062 C 5.589844 18.625 5.601562 18.578125 5.601562 18.53125 L 5.601562 17.742188 C 5.601562 17.523438 5.421875 17.34375 5.199219 17.34375 C 4.980469 17.34375 4.800781 17.523438 4.800781 17.742188 L 4.800781 18.398438 L 1.925781 18.398438 C 1.304688 18.398438 0.800781 17.894531 0.800781 17.277344 L 0.800781 1.925781 C 0.800781 1.304688 1.304688 0.800781 1.925781 0.800781 L 17.277344 0.800781 C 17.894531 0.800781 18.398438 1.304688 18.398438 1.925781 L 18.398438 4.828125 C 18.25 4.886719 18.144531 5.03125 18.144531 5.199219 C 18.144531 5.421875 18.320312 5.601562 18.542969 5.601562 Z M 19.332031 5.601562"/>
    <path d="M5.199219 12.613281C4.980469 12.613281 4.800781 12.792969 4.800781 13.011719L4.800781 13.800781C4.800781 14.023438 4.980469 14.199219 5.199219 14.199219 5.421875 14.199219 5.601562 14.023438 5.601562 13.800781L5.601562 13.011719C5.601562 12.792969 5.421875 12.613281 5.199219 12.613281zM5.199219 21.296875C5.421875 21.296875 5.601562 21.117188 5.601562 20.898438L5.601562 20.109375C5.601562 19.886719 5.421875 19.710938 5.199219 19.710938 4.980469 19.710938 4.800781 19.886719 4.800781 20.109375L4.800781 20.898438C4.800781 21.117188 4.980469 21.296875 5.199219 21.296875zM7.503906 5.601562C7.726562 5.601562 7.902344 5.421875 7.902344 5.199219 7.902344 4.980469 7.726562 4.800781 7.503906 4.800781L6.714844 4.800781C6.492188 4.800781 6.320312 4.980469 6.320312 5.199219 6.320312 5.421875 6.503906 5.601562 6.722656 5.601562zM5.601562 8.28125C5.601562 8.058594 5.421875 7.882812 5.199219 7.882812 4.980469 7.882812 4.800781 8.058594 4.800781 8.28125L4.800781 9.070312C4.800781 9.289062 4.980469 9.46875 5.199219 9.46875 5.421875 9.46875 5.601562 9.289062 5.601562 9.070312zM7.882812 23.199219L7.09375 23.199219C6.871094 23.199219 6.695312 23.378906 6.695312 23.601562 6.695312 23.820312 6.871094 24 7.09375 24L7.882812 24C8.105469 24 8.28125 23.820312 8.28125 23.601562 8.28125 23.378906 8.105469 23.199219 7.882812 23.199219zM5.199219 16.566406C5.421875 16.566406 5.601562 16.386719 5.601562 16.167969L5.601562 15.378906C5.601562 15.15625 5.421875 14.976562 5.199219 14.976562 4.980469 14.976562 4.800781 15.15625 4.800781 15.378906L4.800781 16.167969C4.800781 16.386719 4.980469 16.566406 5.199219 16.566406zM5.601562 10.648438C5.601562 10.425781 5.421875 10.246094 5.199219 10.246094 4.980469 10.246094 4.800781 10.425781 4.800781 10.648438L4.800781 11.433594C4.800781 11.65625 4.980469 11.835938 5.199219 11.835938 5.421875 11.835938 5.601562 11.65625 5.601562 11.433594zM23.546875 6.722656C23.582031 6.722656 23.617188 6.714844 23.652344 6.707031 23.863281 6.648438 23.992188 6.429688 23.933594 6.214844 23.84375 5.894531 23.671875 5.601562 23.4375 5.363281 23.28125 5.207031 23.027344 5.207031 22.871094 5.363281 22.714844 5.519531 22.714844 5.773438 22.871094 5.929688 23.007812 6.070312 23.109375 6.238281 23.160156 6.425781 23.207031 6.605469 23.371094 6.722656 23.546875 6.722656zM22.074219 23.199219L21.289062 23.199219C21.066406 23.199219 20.886719 23.378906 20.886719 23.601562 20.886719 23.820312 21.066406 24 21.289062 24L22.085938 24 22.09375 23.601562 22.09375 24C22.316406 24 22.484375 23.820312 22.484375 23.601562 22.484375 23.378906 22.296875 23.199219 22.074219 23.199219zM21.699219 5.601562C21.917969 5.601562 22.097656 5.421875 22.097656 5.199219 22.097656 4.980469 21.917969 4.800781 21.699219 4.800781L20.910156 4.800781C20.6875 4.800781 20.507812 4.980469 20.507812 5.199219 20.507812 5.421875 20.6875 5.601562 20.910156 5.601562zM23.601562 21.6875C23.378906 21.6875 23.203125 21.863281 23.199219 22.085938 23.199219 22.28125 23.144531 22.472656 23.050781 22.636719 22.9375 22.828125 23.003906 23.074219 23.195312 23.183594 23.257812 23.222656 23.328125 23.238281 23.394531 23.238281 23.53125 23.238281 23.667969 23.167969 23.742188 23.039062 23.90625 22.753906 23.996094 22.425781 24 22.089844 24 21.871094 23.824219 21.6875 23.601562 21.6875zM23.601562 19.320312C23.378906 19.320312 23.199219 19.5 23.199219 19.722656L23.199219 20.511719C23.199219 20.730469 23.378906 20.910156 23.601562 20.910156 23.820312 20.910156 24 20.730469 24 20.511719L24 19.722656C24 19.5 23.820312 19.320312 23.601562 19.320312zM23.601562 12.226562C23.378906 12.226562 23.199219 12.402344 23.199219 12.625L23.199219 13.414062C23.199219 13.632812 23.378906 13.8125 23.601562 13.8125 23.820312 13.8125 24 13.632812 24 13.414062L24 12.625C24 12.402344 23.820312 12.226562 23.601562 12.226562zM23.601562 14.589844C23.378906 14.589844 23.199219 14.769531 23.199219 14.992188L23.199219 15.777344C23.199219 16 23.378906 16.179688 23.601562 16.179688 23.820312 16.179688 24 16 24 15.777344L24 14.992188C24 14.769531 23.820312 14.589844 23.601562 14.589844zM19.710938 23.199219L18.921875 23.199219C18.699219 23.199219 18.523438 23.378906 18.523438 23.601562 18.523438 23.820312 18.699219 24 18.921875 24L19.710938 24C19.929688 24 20.109375 23.820312 20.109375 23.601562 20.109375 23.378906 19.929688 23.199219 19.710938 23.199219zM23.601562 16.957031C23.378906 16.957031 23.199219 17.136719 23.199219 17.355469L23.199219 18.144531C23.199219 18.363281 23.378906 18.542969 23.601562 18.542969 23.820312 18.542969 24 18.363281 24 18.144531L24 17.355469C24 17.136719 23.820312 16.957031 23.601562 16.957031zM23.601562 7.492188C23.378906 7.492188 23.199219 7.671875 23.199219 7.894531L23.199219 8.683594C23.199219 8.902344 23.378906 9.082031 23.601562 9.082031 23.820312 9.082031 24 8.902344 24 8.683594L24 7.894531C24 7.671875 23.820312 7.492188 23.601562 7.492188zM23.601562 9.859375C23.378906 9.859375 23.199219 10.039062 23.199219 10.257812L23.199219 11.046875C23.199219 11.269531 23.378906 11.449219 23.601562 11.449219 23.820312 11.449219 24 11.269531 24 11.046875L24 10.257812C24 10.039062 23.820312 9.859375 23.601562 9.859375zM3.601562 3.199219C3.601562 3.421875 3.421875 3.601562 3.199219 3.601562 2.980469 3.601562 2.800781 3.421875 2.800781 3.199219 2.800781 2.980469 2.980469 2.800781 3.199219 2.800781 3.421875 2.800781 3.601562 2.980469 3.601562 3.199219zM2.398438 2C2.398438 2.222656 2.222656 2.398438 2 2.398438 1.777344 2.398438 1.601562 2.222656 1.601562 2 1.601562 1.777344 1.777344 1.601562 2 1.601562 2.222656 1.601562 2.398438 1.777344 2.398438 2zM4.800781 2C4.800781 2.222656 4.621094 2.398438 4.398438 2.398438 4.179688 2.398438 4 2.222656 4 2 4 1.777344 4.179688 1.601562 4.398438 1.601562 4.621094 1.601562 4.800781 1.777344 4.800781 2zM6 3.199219C6 3.421875 5.820312 3.601562 5.601562 3.601562 5.378906 3.601562 5.199219 3.421875 5.199219 3.199219 5.199219 2.980469 5.378906 2.800781 5.601562 2.800781 5.820312 2.800781 6 2.980469 6 3.199219zM8.398438 3.199219C8.398438 3.421875 8.222656 3.601562 8 3.601562 7.777344 3.601562 7.601562 3.421875 7.601562 3.199219 7.601562 2.980469 7.777344 2.800781 8 2.800781 8.222656 2.800781 8.398438 2.980469 8.398438 3.199219zM13.199219 3.199219C13.199219 3.421875 13.019531 3.601562 12.800781 3.601562 12.578125 3.601562 12.398438 3.421875 12.398438 3.199219 12.398438 2.980469 12.578125 2.800781 12.800781 2.800781 13.019531 2.800781 13.199219 2.980469 13.199219 3.199219zM7.199219 2C7.199219 2.222656 7.019531 2.398438 6.800781 2.398438 6.578125 2.398438 6.398438 2.222656 6.398438 2 6.398438 1.777344 6.578125 1.601562 6.800781 1.601562 7.019531 1.601562 7.199219 1.777344 7.199219 2zM9.601562 2C9.601562 2.222656 9.421875 2.398438 9.199219 2.398438 8.980469 2.398438 8.800781 2.222656 8.800781 2 8.800781 1.777344 8.980469 1.601562 9.199219 1.601562 9.421875 1.601562 9.601562 1.777344 9.601562 2zM10.800781 3.199219C10.800781 3.421875 10.621094 3.601562 10.398438 3.601562 10.179688 3.601562 10 3.421875 10 3.199219 10 2.980469 10.179688 2.800781 10.398438 2.800781 10.621094 2.800781 10.800781 2.980469 10.800781 3.199219zM12 2C12 2.222656 11.820312 2.398438 11.601562 2.398438 11.378906 2.398438 11.199219 2.222656 11.199219 2 11.199219 1.777344 11.378906 1.601562 11.601562 1.601562 11.820312 1.601562 12 1.777344 12 2zM14.398438 2C14.398438 2.222656 14.222656 2.398438 14 2.398438 13.777344 2.398438 13.601562 2.222656 13.601562 2 13.601562 1.777344 13.777344 1.601562 14 1.601562 14.222656 1.601562 14.398438 1.777344 14.398438 2zM15.601562 3.199219C15.601562 3.421875 15.421875 3.601562 15.199219 3.601562 14.980469 3.601562 14.800781 3.421875 14.800781 3.199219 14.800781 2.980469 14.980469 2.800781 15.199219 2.800781 15.421875 2.800781 15.601562 2.980469 15.601562 3.199219zM16.800781 2C16.800781 2.222656 16.621094 2.398438 16.398438 2.398438 16.179688 2.398438 16 2.222656 16 2 16 1.777344 16.179688 1.601562 16.398438 1.601562 16.621094 1.601562 16.800781 1.777344 16.800781 2zM18 3.199219C18 3.421875 17.820312 3.601562 17.601562 3.601562 17.378906 3.601562 17.199219 3.421875 17.199219 3.199219 17.199219 2.980469 17.378906 2.800781 17.601562 2.800781 17.820312 2.800781 18 2.980469 18 3.199219zM3.601562 8C3.601562 8.222656 3.421875 8.398438 3.199219 8.398438 2.980469 8.398438 2.800781 8.222656 2.800781 8 2.800781 7.777344 2.980469 7.601562 3.199219 7.601562 3.421875 7.601562 3.601562 7.777344 3.601562 8zM3.601562 5.601562C3.601562 5.820312 3.421875 6 3.199219 6 2.980469 6 2.800781 5.820312 2.800781 5.601562 2.800781 5.378906 2.980469 5.199219 3.199219 5.199219 3.421875 5.199219 3.601562 5.378906 3.601562 5.601562zM2.398438 4.398438C2.398438 4.621094 2.222656 4.800781 2 4.800781 1.777344 4.800781 1.601562 4.621094 1.601562 4.398438 1.601562 4.179688 1.777344 4 2 4 2.222656 4 2.398438 4.179688 2.398438 4.398438zM2.398438 6.800781C2.398438 7.019531 2.222656 7.199219 2 7.199219 1.777344 7.199219 1.601562 7.019531 1.601562 6.800781 1.601562 6.578125 1.777344 6.398438 2 6.398438 2.222656 6.398438 2.398438 6.578125 2.398438 6.800781zM4.800781 4.398438C4.800781 4.621094 4.621094 4.800781 4.398438 4.800781 4.179688 4.800781 4 4.621094 4 4.398438 4 4.179688 4.179688 4 4.398438 4 4.621094 4 4.800781 4.179688 4.800781 4.398438zM3.601562 12.800781C3.601562 13.019531 3.421875 13.199219 3.199219 13.199219 2.980469 13.199219 2.800781 13.019531 2.800781 12.800781 2.800781 12.578125 2.980469 12.398438 3.199219 12.398438 3.421875 12.398438 3.601562 12.578125 3.601562 12.800781zM3.601562 10.398438C3.601562 10.621094 3.421875 10.800781 3.199219 10.800781 2.980469 10.800781 2.800781 10.621094 2.800781 10.398438 2.800781 10.179688 2.980469 10 3.199219 10 3.421875 10 3.601562 10.179688 3.601562 10.398438zM2.398438 9.199219C2.398438 9.421875 2.222656 9.601562 2 9.601562 1.777344 9.601562 1.601562 9.421875 1.601562 9.199219 1.601562 8.980469 1.777344 8.800781 2 8.800781 2.222656 8.800781 2.398438 8.980469 2.398438 9.199219zM2.398438 11.601562C2.398438 11.820312 2.222656 12 2 12 1.777344 12 1.601562 11.820312 1.601562 11.601562 1.601562 11.378906 1.777344 11.199219 2 11.199219 2.222656 11.199219 2.398438 11.378906 2.398438 11.601562zM3.601562 17.601562C3.601562 17.820312 3.421875 18 3.199219 18 2.980469 18 2.800781 17.820312 2.800781 17.601562 2.800781 17.378906 2.980469 17.199219 3.199219 17.199219 3.421875 17.199219 3.601562 17.378906 3.601562 17.601562zM3.601562 15.199219C3.601562 15.421875 3.421875 15.601562 3.199219 15.601562 2.980469 15.601562 2.800781 15.421875 2.800781 15.199219 2.800781 14.980469 2.980469 14.800781 3.199219 14.800781 3.421875 14.800781 3.601562 14.980469 3.601562 15.199219zM2.398438 14C2.398438 14.222656 2.222656 14.398438 2 14.398438 1.777344 14.398438 1.601562 14.222656 1.601562 14 1.601562 13.777344 1.777344 13.601562 2 13.601562 2.222656 13.601562 2.398438 13.777344 2.398438 14zM2.398438 16.398438C2.398438 16.621094 2.222656 16.800781 2 16.800781 1.777344 16.800781 1.601562 16.621094 1.601562 16.398438 1.601562 16.179688 1.777344 16 2 16 2.222656 16 2.398438 16.179688 2.398438 16.398438zM2.398438 16.398438"/>
</svg>

<svg xmlns="http://www.w3.org/2000/svg" width="32" height="32" viewBox="0 0 24 24">
    <path d="M9.871 5.602a.401.401 0 0 0 0-.801h-.789a.401.401 0 1 0 0 .8zm0 0M12.234 5.602a.401.401 0 0 0 0-.8l-.789-.001a.4.4 0 0 0 0 .8zm0 0M14.602 5.602a.401.401 0 0 0 0-.801h-.79a.401.401 0 1 0 0 .8zm0 0M10.246 23.2h-.785a.401.401 0 0 0 0 .8h.785a.401.401 0 1 0 0-.8zm0 0M12.613 23.2h-.789a.401.401 0 0 0 0 .8h.79c.222 0 .398-.18.398-.398a.398.398 0 0 0-.399-.403zm0 0M14.98 23.2h-.789a.401.401 0 0 0 0 .8h.79a.4.4 0 0 0 0-.8zm0 0M17.344 23.2h-.79a.401.401 0 0 0 0 .8h.79a.401.401 0 1 0 0-.8zm0 0M16.965 5.602a.401.401 0 0 0 0-.8l-.79-.001a.4.4 0 0 0 0 .8zm0 0M5.637 22.367a.399.399 0 0 0-.489-.285.408.408 0 0 0-.285.492c.086.32.258.613.492.852a.396.396 0 0 0 .566.004.4.4 0 0 0 .005-.563 1.117 1.117 0 0 1-.29-.5zm0 0M5.063 5.75c-.168.29-.258.617-.262.95a.4.4 0 0 0 .394.405H5.2a.403.403 0 0 0 .403-.394c0-.195.054-.387.152-.555a.4.4 0 0 0-.691-.406zm0 0"/>
    <path d="M19.332 5.602c.223 0 .398-.18.398-.403a.398.398 0 0 0-.398-.398h-.133V1.926A1.926 1.926 0 0 0 17.277 0H1.926A1.927 1.927 0 0 0 0 1.926v15.351C0 18.336.863 19.2 1.926 19.2h3.273c.223 0 .403-.18.403-.398a.406.406 0 0 0-.028-.137.366.366 0 0 0 .028-.133v-.789a.401.401 0 0 0-.801 0v.656H1.926A1.124 1.124 0 0 1 .8 17.278V1.925C.8 1.305 1.305.8 1.926.8h15.351c.618 0 1.121.504 1.121 1.125v2.902a.4.4 0 0 0 .145.774zm0 0"/>
    <path d="M5.2 12.613a.4.4 0 0 0-.4.399v.789c0 .222.18.398.4.398a.398.398 0 0 0 .402-.398v-.79a.401.401 0 0 0-.403-.398zm0 0M5.2 21.297c.222 0 .402-.18.402-.399v-.789a.398.398 0 0 0-.403-.398.398.398 0 0 0-.398.398v.79a.4.4 0 0 0 .398.398zm0 0M7.504 5.602c.223 0 .398-.18.398-.403a.398.398 0 0 0-.398-.398h-.79a.394.394 0 0 0-.394.398c0 .223.184.403.403.403zm0 0M5.602 8.281a.398.398 0 0 0-.403-.398.398.398 0 0 0-.398.398v.79a.4.4 0 0 0 .8 0zm0 0M7.883 23.2h-.79a.398.398 0 0 0-.398.402c0 .218.176.398.399.398h.789c.222 0 .398-.18.398-.398a.398.398 0 0 0-.398-.403zm0 0M5.2 16.566c.222 0 .402-.18.402-.398v-.79a.401.401 0 0 0-.8 0l-.001.79a.4.4 0 0 0 .398.398zm0 0M5.602 10.648a.401.401 0 0 0-.8 0l-.001.786a.401.401 0 1 0 .8 0zm0 0M23.547 6.723a.402.402 0 0 0 .387-.508 1.98 1.98 0 0 0-.497-.852.4.4 0 0 0-.566.567c.137.14.238.308.29.496a.4.4 0 0 0 .386.297zm0 0M22.074 23.2h-.785a.401.401 0 0 0 0 .8h.797l.008-.398V24c.222 0 .39-.18.39-.398a.409.409 0 0 0-.41-.403zm0 0M21.7 5.602a.401.401 0 0 0 0-.801h-.79a.401.401 0 1 0 0 .8zm0 0M23.602 21.688a.4.4 0 0 0-.403.398c0 .195-.054.387-.148.55a.397.397 0 0 0 .144.548.401.401 0 0 0 .547-.145c.164-.285.254-.613.258-.95a.4.4 0 0 0-.398-.401zm0 0M23.602 19.32a.402.402 0 0 0-.403.403v.789a.401.401 0 0 0 .801 0v-.79a.401.401 0 0 0-.398-.402zm0 0M23.602 12.227a.398.398 0 0 0-.403.398v.79a.401.401 0 0 0 .801 0v-.79a.398.398 0 0 0-.398-.398zm0 0M23.602 14.59a.402.402 0 0 0-.403.402v.785a.401.401 0 0 0 .8 0l.001-.785a.401.401 0 0 0-.398-.402zm0 0M19.71 23.2h-.788a.398.398 0 0 0-.399.402c0 .218.176.398.399.398h.789a.4.4 0 0 0 0-.8zm0 0M23.602 16.957a.401.401 0 0 0-.403.398v.79a.401.401 0 0 0 .801 0v-.79a.4.4 0 0 0-.398-.398zm0 0M23.602 7.492a.402.402 0 0 0-.403.403v.789a.401.401 0 0 0 .801 0v-.79a.401.401 0 0 0-.398-.402zm0 0M23.602 9.86a.401.401 0 0 0-.403.398v.789a.401.401 0 0 0 .8 0l.001-.79a.4.4 0 0 0-.398-.398zm0 0M3.602 3.2a.401.401 0 1 1 0 0zm0 0M2.398 2A.395.395 0 0 1 2 2.398.395.395 0 0 1 1.602 2c0-.223.175-.398.398-.398.223 0 .398.175.398.398zm0 0M4.8 2c0 .223-.179.398-.402.398a.398.398 0 1 1 0-.796c.223 0 .403.175.403.398zm0 0M6 3.2a.401.401 0 1 1-.802.002A.401.401 0 0 1 6 3.199zm0 0M8.398 3.2a.398.398 0 1 1-.796 0 .398.398 0 1 1 .796 0zm0 0M13.2 3.2a.401.401 0 1 1-.803.002.401.401 0 0 1 .802-.003zm0 0M7.2 2c0 .223-.18.398-.4.398a.398.398 0 1 1 0-.796c.22 0 .4.175.4.398zm0 0M9.602 2c0 .223-.18.398-.403.398a.398.398 0 1 1 0-.796c.223 0 .403.175.403.398zm0 0M10.8 3.2a.401.401 0 1 1 0 0zm0 0M12 2c0 .223-.18.398-.398.398a.398.398 0 1 1 0-.796c.218 0 .398.175.398.398zm0 0M14.398 2a.395.395 0 0 1-.398.398.395.395 0 0 1-.398-.398c0-.223.175-.398.398-.398.223 0 .398.175.398.398zm0 0M15.602 3.2a.401.401 0 1 1 0 0zm0 0M16.8 2c0 .223-.179.398-.402.398a.398.398 0 1 1 0-.796c.223 0 .403.175.403.398zm0 0M18 3.2a.401.401 0 1 1-.802.002.401.401 0 0 1 .802-.003zm0 0M3.602 8c0 .223-.18.398-.403.398a.398.398 0 1 1 0-.796c.223 0 .403.175.403.398zm0 0M3.602 5.602a.401.401 0 1 1-.802-.005.401.401 0 0 1 .802.005zm0 0M2.398 4.398a.398.398 0 1 1-.796 0 .398.398 0 1 1 .796 0zm0 0M2.398 6.8a.398.398 0 1 1-.796 0 .398.398 0 1 1 .796 0zm0 0M4.8 4.398a.401.401 0 1 1 0 0zm0 0M3.602 12.8a.401.401 0 1 1-.802-.004.401.401 0 0 1 .802.005zm0 0M3.602 10.398a.401.401 0 1 1 0 0zm0 0M2.398 9.2a.398.398 0 1 1-.796 0 .398.398 0 1 1 .796 0zm0 0M2.398 11.602a.398.398 0 1 1-.796 0 .398.398 0 1 1 .796 0zm0 0M3.602 17.602a.401.401 0 1 1-.802-.005.401.401 0 0 1 .802.005zm0 0M3.602 15.2a.401.401 0 1 1 0 0zm0 0M2.398 14a.395.395 0 0 1-.398.398.395.395 0 0 1-.398-.398c0-.223.175-.398.398-.398.223 0 .398.175.398.398zm0 0M2.398 16.398a.398.398 0 1 1-.796 0 .398.398 0 1 1 .796 0zm0 0"/>
</svg>
